img/header/Logo.svg

<svg width="192" height="55" fill="none" xmlns="http://www.w3.org/2000/svg"><path d="M88.376 16.052v3.924h-7.668V41h-4.572V19.976h-7.668v-3.924h19.908Zm.23 15.624c0-1.656.24-3.108.72-4.356.505-1.248 1.165-2.28 1.98-3.096a7.8 7.8 0 0 1 2.809-1.872 8.485 8.485 0 0 1 3.24-.648c2.592 0 4.608.804 6.048 2.412 1.464 1.608 2.196 4.008 2.196 7.2 0 .24-.012.516-.036.828a8 8 0 0 1-.036.792h-12.42c.12 1.512.648 2.688 1.584 3.528.96.816 2.34 1.224 4.14 1.224 1.056 0 2.016-.096 2.88-.288.888-.192 1.584-.396 2.088-.612l.576 3.564a8.04 8.04 0 0 1-1.008.396c-.408.12-.888.228-1.44.324-.528.12-1.104.216-1.728.288-.624.072-1.26.108-1.908.108-1.656 0-3.096-.24-4.32-.72-1.224-.504-2.232-1.188-3.024-2.052a8.607 8.607 0 0 1-1.764-3.096c-.384-1.2-.576-2.508-.576-3.924Zm12.637-1.944c0-.6-.084-1.164-.252-1.692a3.763 3.763 0 0 0-.756-1.404 3.041 3.041 0 0 0-1.188-.936c-.456-.24-1.008-.36-1.656-.36-.672 0-1.26.132-1.764.396-.504.24-.936.564-1.296.972-.336.408-.6.876-.792 1.404a7.605 7.605 0 0 0-.396 1.62h8.1Zm13.69 8.136c1.152 0 1.992-.132 2.52-.396.528-.288.792-.768.792-1.44 0-.624-.288-1.14-.864-1.548-.552-.408-1.476-.852-2.772-1.332a27.71 27.71 0 0 1-2.196-.9 8.056 8.056 0 0 1-1.692-1.152 4.927 4.927 0 0 1-1.152-1.548c-.264-.624-.396-1.38-.396-2.268 0-1.728.636-3.084 1.908-4.068 1.272-1.008 3-1.512 5.184-1.512 1.104 0 2.16.108 3.168.324 1.008.192 1.764.384 2.268.576l-.792 3.528c-.48-.216-1.092-.408-1.836-.576-.744-.192-1.608-.288-2.592-.288-.888 0-1.608.156-2.16.468-.552.288-.828.744-.828 1.368 0 .312.048.588.144.828.12.24.312.468.576.684.264.192.612.396 1.044.612.432.192.96.396 1.584.612 1.032.384 1.908.768 2.628 1.152.72.36 1.308.78 1.764 1.26.48.456.828.984 1.044 1.584.216.6.324 1.32.324 2.16 0 1.8-.672 3.168-2.016 4.104-1.32.912-3.216 1.368-5.688 1.368-1.656 0-2.988-.144-3.996-.432-1.008-.264-1.716-.48-2.124-.648l.756-3.636c.648.264 1.416.516 2.304.756.912.24 1.944.36 3.096.36Zm11.521-20.664 4.356-.72v5.688h6.696v3.636h-6.696v7.668c0 1.512.24 2.592.72 3.24.48.648 1.296.972 2.448.972.792 0 1.488-.084 2.088-.252a13.832 13.832 0 0 0 1.476-.468l.72 3.456c-.504.216-1.164.432-1.98.648-.816.24-1.776.36-2.88.36-1.344 0-2.472-.18-3.384-.54-.888-.36-1.596-.876-2.124-1.548-.528-.696-.9-1.524-1.116-2.484-.216-.984-.324-2.1-.324-3.348V17.204ZM146.109 41h-4.356V22.172h4.356V41Zm.468-24.336c0 .816-.264 1.464-.792 1.944a2.69 2.69 0 0 1-1.872.72c-.744 0-1.38-.24-1.908-.72s-.792-1.128-.792-1.944c0-.84.264-1.5.792-1.98s1.164-.72 1.908-.72c.72 0 1.344.24 1.872.72s.792 1.14.792 1.98Zm5.09 6.12c.84-.24 1.932-.468 3.276-.684 1.344-.216 2.832-.324 4.464-.324 1.536 0 2.82.216 3.852.648 1.032.408 1.848.996 2.448 1.764.624.744 1.056 1.656 1.296 2.736.264 1.056.396 2.22.396 3.492V41h-4.356v-9.9c0-1.008-.072-1.86-.216-2.556-.12-.72-.336-1.296-.648-1.728a2.354 2.354 0 0 0-1.224-.972c-.504-.216-1.128-.324-1.872-.324-.552 0-1.128.036-1.728.108-.6.072-1.044.132-1.332.18V41h-4.356V22.784Zm24.478 8.316c0 1.848.396 3.204 1.188 4.068.816.84 1.86 1.26 3.132 1.26.696 0 1.344-.096 1.944-.288.624-.192 1.128-.42 1.512-.684V25.7a9.794 9.794 0 0 0-1.152-.18c-.456-.072-1.032-.108-1.728-.108-1.584 0-2.796.528-3.636 1.584-.84 1.032-1.26 2.4-1.26 4.104Zm12.132 7.992c0 3-.768 5.196-2.304 6.588-1.512 1.392-3.84 2.088-6.984 2.088-1.152 0-2.28-.096-3.384-.288a18.89 18.89 0 0 1-2.952-.756l.792-3.708c.744.312 1.584.564 2.52.756.96.192 1.992.288 3.096.288 1.752 0 3-.36 3.744-1.08.744-.72 1.116-1.788 1.116-3.204v-.72c-.432.216-1.008.432-1.728.648-.696.216-1.5.324-2.412.324-1.2 0-2.304-.192-3.312-.576a7.107 7.107 0 0 1-2.556-1.692c-.696-.744-1.248-1.668-1.656-2.772-.384-1.128-.576-2.424-.576-3.888 0-1.368.204-2.628.612-3.78.432-1.152 1.044-2.136 1.836-2.952.816-.816 1.8-1.452 2.952-1.908 1.152-.456 2.46-.684 3.924-.684 1.416 0 2.76.108 4.032.324 1.272.216 2.352.444 3.24.684v16.308Z" fill="#F2F2F2"/><path fill-rule="evenodd" clip-rule="evenodd" d="M43.356 5.029C31.46 5.624 22 15.457 22 27.5s9.461 21.876 21.356 22.471A27.374 27.374 0 0 1 27.5 55C12.312 55 0 42.688 0 27.5S12.312 0 27.5 0a27.374 27.374 0 0 1 15.856 5.029Z" fill="#FF0B53"/><circle cx="44.5" cy="27.5" r="19.5" fill="#fff"/></svg>

<svg width="192" height="55" viewBox="0 0 192 55" fill="none" xmlns="http://www.w3.org/2000/svg">
<path d="M88.376 16.052V19.976H80.708V41H76.136V19.976H68.468V16.052H88.376ZM88.6069 31.676C88.6069 30.02 88.8469 28.568 89.3269 27.32C89.8309 26.072 90.4909 25.04 91.3069 24.224C92.1229 23.384 93.0589 22.76 94.1149 22.352C95.1709 21.92 96.2509 21.704 97.3549 21.704C99.9469 21.704 101.963 22.508 103.403 24.116C104.867 25.724 105.599 28.124 105.599 31.316C105.599 31.556 105.587 31.832 105.563 32.144C105.563 32.432 105.551 32.696 105.527 32.936H93.1069C93.2269 34.448 93.7549 35.624 94.6909 36.464C95.6509 37.28 97.0309 37.688 98.8309 37.688C99.8869 37.688 100.847 37.592 101.711 37.4C102.599 37.208 103.295 37.004 103.799 36.788L104.375 40.352C104.135 40.472 103.799 40.604 103.367 40.748C102.959 40.868 102.479 40.976 101.927 41.072C101.399 41.192 100.823 41.288 100.199 41.36C99.5749 41.432 98.9389 41.468 98.2909 41.468C96.6349 41.468 95.1949 41.228 93.9709 40.748C92.7469 40.244 91.7389 39.56 90.9469 38.696C90.1549 37.808 89.5669 36.776 89.1829 35.6C88.7989 34.4 88.6069 33.092 88.6069 31.676ZM101.243 29.732C101.243 29.132 101.159 28.568 100.991 28.04C100.823 27.488 100.571 27.02 100.235 26.636C99.9229 26.228 99.5269 25.916 99.0469 25.7C98.5909 25.46 98.0389 25.34 97.3909 25.34C96.7189 25.34 96.1309 25.472 95.6269 25.736C95.1229 25.976 94.6909 26.3 94.3309 26.708C93.9949 27.116 93.7309 27.584 93.5389 28.112C93.3469 28.64 93.2149 29.18 93.1429 29.732H101.243ZM114.933 37.868C116.085 37.868 116.925 37.736 117.453 37.472C117.981 37.184 118.245 36.704 118.245 36.032C118.245 35.408 117.957 34.892 117.381 34.484C116.829 34.076 115.905 33.632 114.609 33.152C113.817 32.864 113.085 32.564 112.413 32.252C111.765 31.916 111.201 31.532 110.721 31.1C110.241 30.668 109.857 30.152 109.569 29.552C109.305 28.928 109.173 28.172 109.173 27.284C109.173 25.556 109.809 24.2 111.081 23.216C112.353 22.208 114.081 21.704 116.265 21.704C117.369 21.704 118.425 21.812 119.433 22.028C120.441 22.22 121.197 22.412 121.701 22.604L120.909 26.132C120.429 25.916 119.817 25.724 119.073 25.556C118.329 25.364 117.465 25.268 116.481 25.268C115.593 25.268 114.873 25.424 114.321 25.736C113.769 26.024 113.493 26.48 113.493 27.104C113.493 27.416 113.541 27.692 113.637 27.932C113.757 28.172 113.949 28.4 114.213 28.616C114.477 28.808 114.825 29.012 115.257 29.228C115.689 29.42 116.217 29.624 116.841 29.84C117.873 30.224 118.749 30.608 119.469 30.992C120.189 31.352 120.777 31.772 121.233 32.252C121.713 32.708 122.061 33.236 122.277 33.836C122.493 34.436 122.601 35.156 122.601 35.996C122.601 37.796 121.929 39.164 120.585 40.1C119.265 41.012 117.369 41.468 114.897 41.468C113.241 41.468 111.909 41.324 110.901 41.036C109.893 40.772 109.185 40.556 108.777 40.388L109.533 36.752C110.181 37.016 110.949 37.268 111.837 37.508C112.749 37.748 113.781 37.868 114.933 37.868ZM126.454 17.204L130.81 16.484V22.172H137.506V25.808H130.81V33.476C130.81 34.988 131.05 36.068 131.53 36.716C132.01 37.364 132.826 37.688 133.978 37.688C134.77 37.688 135.466 37.604 136.066 37.436C136.69 37.268 137.182 37.112 137.542 36.968L138.262 40.424C137.758 40.64 137.098 40.856 136.282 41.072C135.466 41.312 134.506 41.432 133.402 41.432C132.058 41.432 130.93 41.252 130.018 40.892C129.13 40.532 128.422 40.016 127.894 39.344C127.366 38.648 126.994 37.82 126.778 36.86C126.562 35.876 126.454 34.76 126.454 33.512V17.204ZM146.109 41H141.753V22.172H146.109V41ZM146.577 16.664C146.577 17.48 146.313 18.128 145.785 18.608C145.257 19.088 144.633 19.328 143.913 19.328C143.169 19.328 142.533 19.088 142.005 18.608C141.477 18.128 141.213 17.48 141.213 16.664C141.213 15.824 141.477 15.164 142.005 14.684C142.533 14.204 143.169 13.964 143.913 13.964C144.633 13.964 145.257 14.204 145.785 14.684C146.313 15.164 146.577 15.824 146.577 16.664ZM151.667 22.784C152.507 22.544 153.599 22.316 154.943 22.1C156.287 21.884 157.775 21.776 159.407 21.776C160.943 21.776 162.227 21.992 163.259 22.424C164.291 22.832 165.107 23.42 165.707 24.188C166.331 24.932 166.763 25.844 167.003 26.924C167.267 27.98 167.399 29.144 167.399 30.416V41H163.043V31.1C163.043 30.092 162.971 29.24 162.827 28.544C162.707 27.824 162.491 27.248 162.179 26.816C161.891 26.36 161.483 26.036 160.955 25.844C160.451 25.628 159.827 25.52 159.083 25.52C158.531 25.52 157.955 25.556 157.355 25.628C156.755 25.7 156.311 25.76 156.023 25.808V41H151.667V22.784ZM176.145 31.1C176.145 32.948 176.541 34.304 177.333 35.168C178.149 36.008 179.193 36.428 180.465 36.428C181.161 36.428 181.809 36.332 182.409 36.14C183.033 35.948 183.537 35.72 183.921 35.456V25.7C183.609 25.628 183.225 25.568 182.769 25.52C182.313 25.448 181.737 25.412 181.041 25.412C179.457 25.412 178.245 25.94 177.405 26.996C176.565 28.028 176.145 29.396 176.145 31.1ZM188.277 39.092C188.277 42.092 187.509 44.288 185.973 45.68C184.461 47.072 182.133 47.768 178.989 47.768C177.837 47.768 176.709 47.672 175.605 47.48C174.525 47.288 173.541 47.036 172.653 46.724L173.445 43.016C174.189 43.328 175.029 43.58 175.965 43.772C176.925 43.964 177.957 44.06 179.061 44.06C180.813 44.06 182.061 43.7 182.805 42.98C183.549 42.26 183.921 41.192 183.921 39.776V39.056C183.489 39.272 182.913 39.488 182.193 39.704C181.497 39.92 180.693 40.028 179.781 40.028C178.581 40.028 177.477 39.836 176.469 39.452C175.485 39.068 174.633 38.504 173.913 37.76C173.217 37.016 172.665 36.092 172.257 34.988C171.873 33.86 171.681 32.564 171.681 31.1C171.681 29.732 171.885 28.472 172.293 27.32C172.725 26.168 173.337 25.184 174.129 24.368C174.945 23.552 175.929 22.916 177.081 22.46C178.233 22.004 179.541 21.776 181.005 21.776C182.421 21.776 183.765 21.884 185.037 22.1C186.309 22.316 187.389 22.544 188.277 22.784V39.092Z" fill="#F2F2F2"/>
<path fill-rule="evenodd" clip-rule="evenodd" d="M43.3559 5.02858C31.4611 5.62432 22 15.4573 22 27.5C22 39.5427 31.4611 49.3757 43.3559 49.9714C38.875 53.139 33.4048 55 27.5 55C12.3122 55 0 42.6878 0 27.5C0 12.3122 12.3122 0 27.5 0C33.4048 0 38.875 1.86105 43.3559 5.02858Z" fill="#FF0B53"/>
<circle cx="44.5" cy="27.5" r="19.5" fill="white"/>
</svg>
